X: 2231
Q: "Irish Jig."
M: 6/8
L: 1/8
K: C
|:\
|:\
gfe uf2ud | edc f2d | gfe f2d | ecA (A2G) |\
gfe uf2ud | edc f2d | GAG f2d | ecA (A2G) :|


